; Generated by Kiri:Moto 3.8.3
; Mon Feb 06 2023 17:45:38 GMT+0800 (Irkutsk Standard Time)
; Bed left:0 right:300 top:175 bottom:0
; Bed type: fixed
; Target: My Any Generic Marlin
; --- process ---
; processName = default
; sliceHeight = 0.25
; sliceShells = 3
; sliceShellOrder = in-out
; sliceLayerStart = last
; sliceLayerStartX = 0
; sliceLayerStartY = 0
; sliceLineWidth = 0
; sliceFillGrow = 0
; sliceFillAngle = 45
; sliceFillWidth = 1
; sliceFillOverlap = 0.35
; sliceFillSparse = 0.25
; sliceFillRepeat = 1
; sliceFillRate = 0
; sliceSolidRate = 0
; sliceFillType = hex
; sliceSupportDensity = 0.1
; sliceSupportOffset = 1
; sliceSupportGap = 1
; sliceSupportSize = 5
; sliceSupportArea = 0.1
; sliceSupportSpan = 5
; sliceSupportGrow = 0
; sliceSupportExtra = 0
; sliceSupportAngle = 50
; sliceSupportNozzle = 0
; sliceSupportEnable = false
; sliceSupportOutline = true
; sliceSolidMinArea = 1
; sliceBottomLayers = 3
; sliceTopLayers = 3
; firstSliceHeight = 0.25
; firstLayerRate = 30
; firstLayerFillRate = 35
; firstLayerPrintMult = 1
; firstLayerLineMult = 1
; firstLayerYOffset = 0
; firstLayerNozzleTemp = 0
; firstLayerBedTemp = 0
; firstLayerBrim = 0
; firstLayerBrimIn = 0
; firstLayerBrimTrig = 0
; firstLayerBrimGap = 0
; firstLayerBeltLead = 3
; firstLayerBeltBump = 0
; firstLayerFanSpeed = 0
; firstLayerFlatten = 0
; outputRaft = false
; outputRaftSpacing = 0.2
; outputDraftShield = false
; outputTemp = 200
; outputBedTemp = 60
; outputFeedrate = 50
; outputFinishrate = 50
; outputSeekrate = 80
; outputShellMult = 1.25
; outputFillMult = 1.25
; outputSparseMult = 1.25
; outputFanSpeed = 255
; outputRetractDist = 1.5
; outputRetractSpeed = 40
; outputRetractWipe = 0
; outputRetractDwell = 20
; outputBrimCount = 2
; outputBrimOffset = 2
; outputShortPoly = 100
; outputMinSpeed = 10
; outputCoastDist = 0
; outputPurgeTower = 0
; outputBeltFirst = false
; outputAvoidGaps = true
; outputAlternating = false
; outputLayerRetract = false
; outputOriginCenter = false
; outputLoops = 0
; outputInvertX = false
; outputInvertY = false
; sliceDetectThin = off
; sliceMinHeight = 0
; sliceAdaptive = false
; zHopDistance = 0.2
; arcTolerance = 0
; antiBacklash = 1
; ranges = []
; --- startup ---
M104 S200 T0             ; set extruder temperature
M140 S60 T0              ; set bed temperature
G90                      ; set absolute positioning mode
M83                      ; set relative positioning for extruder
M107                     ; turn off filament cooling fan
G28                      ; home axes
G92 X0 Y0 Z0 E0          ; reset all axes positions
G1 X0 Y0 Z0.25 F180      ; move xy to 0,0 and z 0.25mm over bed
G92 E0                   ; zero the extruded
M190 S60 T0              ; wait for bed to reach target temp
M109 S200 T0             ; wait for extruder to reach target temp
G1 E15 F200              ; purge 15mm from extruder
G92 E0                   ; zero the extruded
G1 F225                  ; set feed speed
G1 E-1.5000 F2400 ; e-retract 1.5
;; --- layer 0 (0.250 @ 0.255) ---
M106 S0
G1 Z0.2550 F4800
; feature brim
G1 X150.1721 Y98.1177
G1 E1.5000 F2400 ; e-engage 1.5
G4 P20
G1 X151.1028 Y98.0865 E0.0950 F1800
G1 X151.9953 Y98.0092 E0.0914
G1 X153.0281 Y97.8624 E0.1065
G1 X154.1534 Y97.6284 E0.1173
G1 X155.1866 Y97.3445 E0.1093
G1 X156.3594 Y96.9380 E0.1267
G1 X157.5790 Y96.4092 E0.1356
G1 X158.6555 Y95.8449 E0.1240
G1 X159.5321 Y95.3132 E0.1046
G1 X160.2319 Y94.8354 E0.0865
G1 X161.1283 Y94.1452 E0.1154
G1 X161.7337 Y93.6217 E0.0817
G1 X162.2990 Y93.0873 E0.0794
G1 X163.0415 Y92.3067 E0.1099
G1 X163.6204 Y91.6259 E0.0912
G1 X164.3200 Y90.6946 E0.1189
G1 X164.9035 Y89.8040 E0.1086
G1 X165.2512 Y89.2100 E0.0702
G1 X165.4845 Y88.6338 E0.0634
G1 X165.6226 Y88.0124 E0.0649
G1 X165.6577 Y87.3856 E0.0641
G1 X165.5856 Y86.7754 E0.0627
G1 X165.4680 Y86.3293 E0.0471
G1 X165.2816 Y85.8539 E0.0521
G1 X164.9678 Y85.3024 E0.0648
G1 X164.6334 Y84.7690 E0.0642
G1 X164.0311 Y83.9063 E0.1074
G1 X163.4289 Y83.1414 E0.0993
G1 X162.7403 Y82.3655 E0.1058
G1 X162.2737 Y81.8876 E0.0682
G1 X161.8292 Y81.4650 E0.0626
G1 X161.2747 Y80.9773 E0.0754
G1 X160.2832 Y80.2016 E0.1285
G1 X159.6842 Y79.7871 E0.0743
G1 X159.1702 Y79.4596 E0.0622
G1 X158.5360 Y79.0879 E0.0750
G1 X157.7368 Y78.6678 E0.0921
G1 X156.5162 Y78.1246 E0.1363
G1 X155.4927 Y77.7531 E0.1111
G1 X154.5519 Y77.4740 E0.1001
G1 X153.9574 Y77.3264 E0.0625
G1 X153.2473 Y77.1776 E0.0740
G1 X152.2833 Y77.0249 E0.0996
G1 X151.3211 Y76.9275 E0.0987
G1 X150.3268 Y76.8839 E0.1016
G1 X149.3362 Y76.8975 E0.1011
G1 X125.5369 Y78.3450 E2.4330
G1 X125.0284 Y78.4072 E0.0523
G1 X124.4669 Y78.5604 E0.0594
G1 X124.1119 Y78.6999 E0.0389
G1 X123.6514 Y78.9385 E0.0529
G1 X123.3164 Y79.1638 E0.0412
G1 X122.9165 Y79.4977 E0.0532
G1 X122.5236 Y79.9299 E0.0596
G1 X122.1870 Y80.4320 E0.0617
G1 X121.9332 Y80.9524 E0.0591
G1 X121.7521 Y81.5066 E0.0595
G1 X121.6501 Y82.0469 E0.0561
G1 X121.6197 Y82.4154 E0.0377
G1 X121.6203 Y92.6457 E1.0439
G1 X121.6874 Y93.1898 E0.0559
G1 X121.8292 Y93.7649 E0.0604
G1 X122.0543 Y94.3186 E0.0610
G1 X122.3456 Y94.8245 E0.0596
G1 X122.7096 Y95.2896 E0.0603
G1 X123.1263 Y95.6888 E0.0589
G1 X123.4334 Y95.9196 E0.0392
G1 X123.8893 Y96.1973 E0.0545
G1 X124.4498 Y96.4366 E0.0622
G1 X124.9998 Y96.5844 E0.0581
G1 X125.3751 Y96.6409 E0.0387
G1 X149.5249 Y98.1096 E2.4688
G1 X150.1721 Y98.1177 E0.0660
G1 X150.1825 Y99.1179 F4800
G1 X151.1627 Y99.0850 E0.1001 F1800
G1 X152.1089 Y99.0031 E0.0969
G1 X153.2004 Y98.8480 E0.1125
G1 X154.3879 Y98.6011 E0.1238
G1 X155.4831 Y98.3001 E0.1159
G1 X156.7225 Y97.8705 E0.1338
G1 X158.0106 Y97.3120 E0.1433
G1 X159.1475 Y96.7161 E0.1310
G1 X160.0737 Y96.1542 E0.1105
G1 X160.8193 Y95.6451 E0.0921
G1 X161.7609 Y94.9202 E0.1213
G1 X162.4046 Y94.3637 E0.0868
G1 X163.0053 Y93.7957 E0.0844
G1 X163.7852 Y92.9757 E0.1155
G1 X164.4018 Y92.2507 E0.0971
G1 X165.1389 Y91.2695 E0.1252
G1 X165.7538 Y90.3309 E0.1145
G1 X166.1509 Y89.6526 E0.0802
G1 X166.4427 Y88.9319 E0.0793
G1 X166.6164 Y88.1498 E0.0818
G1 X166.6610 Y87.3547 E0.0813
G1 X166.5704 Y86.5883 E0.0787
G1 X166.4202 Y86.0182 E0.0602
G1 X166.1863 Y85.4219 E0.0654
G1 X165.8264 Y84.7893 E0.0743
G1 X165.4675 Y84.2168 E0.0689
G1 X164.8346 Y83.3103 E0.1128
G1 X164.1963 Y82.4996 E0.1053
G1 X163.4724 Y81.6839 E0.1113
G1 X162.9762 Y81.1757 E0.0725
G1 X162.5042 Y80.7269 E0.0665
G1 X161.9135 Y80.2074 E0.0803
G1 X160.8763 Y79.3959 E0.1344
G1 X160.2376 Y78.9540 E0.0793
G1 X159.6918 Y78.6063 E0.0660
G1 X159.0217 Y78.2135 E0.0793
G1 X158.1732 Y77.7674 E0.0978
G1 X156.8905 Y77.1966 E0.1433
G1 X155.8057 Y76.8029 E0.1178
G1 X154.8147 Y76.5089 E0.1055
G1 X154.1806 Y76.3514 E0.0667
G1 X153.4282 Y76.1937 E0.0784
G1 X152.4119 Y76.0328 E0.1050
G1 X151.3933 Y75.9297 E0.1045
G1 X150.3418 Y75.8836 E0.1074
G1 X149.2990 Y75.8979 E0.1064
G1 X125.4457 Y77.3487 E2.4385
G1 X124.8351 Y77.4234 E0.0628
G1 X124.1515 Y77.6099 E0.0723
G1 X123.6978 Y77.7882 E0.0497
G1 X123.1407 Y78.0769 E0.0640
G1 X122.7153 Y78.3630 E0.0523
G1 X122.2228 Y78.7741 E0.0655
G1 X121.7340 Y79.3118 E0.0742
G1 X121.3182 Y79.9321 E0.0762
G1 X121.0041 Y80.5762 E0.0731
G1 X120.7815 Y81.2575 E0.0731
G1 X120.6578 Y81.9127 E0.0680
G1 X120.6197 Y82.3742 E0.0473
G1 X120.6203 Y92.7071 E1.0544
G1 X120.7022 Y93.3713 E0.0683
G1 X120.8755 Y94.0745 E0.0739
G1 X121.1537 Y94.7585 E0.0753
G1 X121.5144 Y95.3849 E0.0738
G1 X121.9662 Y95.9622 E0.0748
G1 X122.4777 Y96.4524 E0.0723
G1 X122.8717 Y96.7483 E0.0503
G1 X123.4304 Y97.0888 E0.0668
G1 X124.1221 Y97.3841 E0.0767
G1 X124.7950 Y97.5648 E0.0711
G1 X125.2701 Y97.6363 E0.0490
G1 X149.4883 Y99.1092 E2.4758
G1 X150.1825 Y99.1179 E0.0708
G1 E-1.5000 F2400 ; e-retract 1.5
G1 Z0.4550 F4800 ; z-hop start
; feature shells
G1 X133.6383 Y90.3304
G1 Z0.2550 ; z-hop end
G1 E1.5000 F2400 ; e-engage 1.5
G4 P20
G1 X133.7127 Y90.0932 E0.0254 F876
G1 X133.7462 Y89.8207 E0.0280
G1 X133.7330 Y89.3407 E0.0490
G1 X133.7261 Y85.9870 E0.3422
G1 X134.1866 Y86.0104 E0.0471
G1 X134.6539 Y85.9949 E0.0477
G1 X134.8783 Y85.9636 E0.0231
G1 X135.1463 Y85.8805 E0.0286
G1 X135.3839 Y85.7191 E0.0293
G1 X135.5457 Y85.5013 E0.0277
G1 X135.6385 Y85.2313 E0.0291
G1 X135.6558 Y85.0404 E0.0196
G1 X135.6453 Y84.8133 E0.0232
G1 X135.6123 Y84.6762 E0.0144
G1 X135.5147 Y84.4368 E0.0264
G1 X135.3577 Y84.2526 E0.0247
G1 X135.1129 Y84.1053 E0.0292
G1 X134.8276 Y84.0448 E0.0298
G1 X131.4978 Y84.0559 E0.3398
G1 X130.9974 Y84.0146 E0.0512
G1 X130.7207 Y84.0204 E0.0282
G1 X130.4847 Y84.0829 E0.0249
G1 X130.2936 Y84.1901 E0.0223
G1 X130.1271 Y84.3472 E0.0234
G1 X129.9784 Y84.5969 E0.0297
G1 X129.9121 Y84.8207 E0.0238
G1 X129.8956 Y85.1117 E0.0297
G1 X129.9348 Y85.3393 E0.0236
G1 X130.0376 Y85.5863 E0.0273
G1 X130.1205 Y85.7092 E0.0151
G1 X130.2812 Y85.8674 E0.0230
G1 X130.4406 Y85.9634 E0.0190
G1 X130.6982 Y86.0373 E0.0273
G1 X130.9959 Y86.0404 E0.0304
G1 X131.3906 Y85.9857 E0.0407
G1 X131.5560 Y85.9695 E0.0170
G1 X131.7057 Y85.9727 E0.0153
G1 X131.7768 Y85.9897 E0.0075
G1 X131.8047 Y86.0044 E0.0032
G1 X131.8077 Y86.0069 E0.0004
G1 X131.8080 Y86.0074 E0.0001
G1 X131.8149 Y86.0310 E0.0025
G1 X131.8178 Y86.0728 E0.0043
G1 X131.7869 Y86.5133 E0.0451
G1 X131.7920 Y87.2031 E0.0704
G1 X131.7870 Y88.7262 E0.1554
G1 X131.7967 Y89.5257 E0.0816
G1 X131.7551 Y90.0144 E0.0500
G1 X131.7939 Y90.3012 E0.0295
G1 X131.9221 Y90.5529 E0.0288
G1 X132.0666 Y90.6982 E0.0209
G1 X132.2634 Y90.8158 E0.0234
G1 X132.4705 Y90.8836 E0.0222
G1 X132.6808 Y90.9114 E0.0216
G1 X132.8959 Y90.9021 E0.0220
G1 X133.1353 Y90.8375 E0.0253
G1 X133.3492 Y90.7146 E0.0252
G1 X133.5108 Y90.5506 E0.0235
G1 X133.6383 Y90.3304 E0.0260
G1 X135.7396 Y89.9728 F4800
G1 X135.8522 Y90.2569 E0.0312 F922
G1 X136.0265 Y90.4925 E0.0299
G1 X136.2030 Y90.6504 E0.0242
G1 X136.4617 Y90.8076 E0.0309
G1 X136.6831 Y90.8987 E0.0244
G1 X137.0201 Y90.9927 E0.0357
G1 X137.4238 Y91.0485 E0.0416
G1 X137.8717 Y91.0554 E0.0457
G1 X138.2739 Y91.0157 E0.0412
G1 X138.5212 Y90.9619 E0.0258
G1 X138.7563 Y90.8840 E0.0253
G1 X138.9842 Y90.7797 E0.0256
G1 X139.1989 Y90.6499 E0.0256
G1 X139.3953 Y90.5000 E0.0252
G1 X139.5750 Y90.3267 E0.0255
G1 X139.7371 Y90.1314 E0.0259
G1 X139.8841 Y89.9089 E0.0272
G1 X140.0498 Y89.5630 E0.0391
G1 X140.1616 Y89.2024 E0.0385
G1 X140.2113 Y88.8466 E0.0366
G1 X140.1985 Y88.4971 E0.0357
G1 X140.1554 Y88.2413 E0.0265
G1 X139.9844 Y87.6443 E0.0634
G1 X139.8611 Y87.3522 E0.0324
G1 X139.6990 Y87.1153 E0.0293
G1 X139.5616 Y86.9844 E0.0194
G1 X139.5791 Y86.9697 E0.0023
G1 X139.7233 Y86.7977 E0.0229
G1 X139.8554 Y86.5320 E0.0303
G1 X139.9286 Y86.2222 E0.0325
G1 X139.9670 Y85.8113 E0.0421
G1 Y85.5699 E0.0246
G1 X139.9483 Y85.3489 E0.0226
G1 X139.9008 Y85.1369 E0.0222
G1 X139.8262 Y84.9326 E0.0222
G1 X139.7101 Y84.7237 E0.0244
G1 X139.4997 Y84.4674 E0.0338
G1 X139.3195 Y84.3088 E0.0245
G1 X139.1273 Y84.1802 E0.0236
G1 X138.9114 Y84.0716 E0.0247
G1 X138.6755 Y83.9871 E0.0256
G1 X138.3156 Y83.9097 E0.0376
G1 X138.0085 Y83.8766 E0.0315
G1 X137.7033 Y83.8696 E0.0312
G1 X137.3493 Y83.8929 E0.0362
G1 X136.9741 Y83.9602 E0.0389
G1 X136.7255 Y84.0365 E0.0265
G1 X136.3945 Y84.1869 E0.0371
G1 X136.1226 Y84.3695 E0.0334
G1 X135.9121 Y84.5785 E0.0303
G1 X135.7928 Y84.7660 E0.0227
G1 X135.7068 Y85.0261 E0.0280
G1 X135.7019 Y85.2466 E0.0225
G1 X135.7435 Y85.4566 E0.0218
G1 X135.8280 Y85.6562 E0.0221
G1 X135.9438 Y85.8332 E0.0216
G1 X136.0873 Y85.9876 E0.0215
G1 X136.2825 Y86.1252 E0.0244
G1 X136.4532 Y86.1938 E0.0188
G1 X136.6952 Y86.2299 E0.0250
G1 X136.9651 Y86.1719 E0.0282
G1 X137.1599 Y86.0763 E0.0221
G1 X137.5035 Y85.8473 E0.0421
G1 X137.5763 Y85.8109 E0.0083
G1 X137.6436 Y85.7883 E0.0072
G1 X137.6909 Y85.7801 E0.0049
G1 X137.7612 Y85.7820 E0.0072
G1 X137.7865 Y85.7897 E0.0027
G1 X137.7927 Y85.7938 E0.0008
G1 X137.7968 Y85.7981 E0.0006
G1 X137.8190 Y85.8331 E0.0042
G1 X137.8245 Y85.8475 E0.0016
G1 X137.8313 Y85.8929 E0.0047
G1 X137.8295 Y85.9204 E0.0028
G1 X137.8244 Y85.9382 E0.0019
G1 X137.8098 Y85.9673 E0.0033
G1 X137.7868 Y85.9975 E0.0039
G1 X137.7131 Y86.0637 E0.0101
G1 X137.6858 Y86.0796 E0.0032
G1 X137.5863 Y86.1133 E0.0107
G1 X137.3066 Y86.1559 E0.0289
G1 X137.0366 Y86.2210 E0.0283
G1 X136.8366 Y86.3198 E0.0228
G1 X136.6262 Y86.5145 E0.0292
G1 X136.5054 Y86.7106 E0.0235
G1 X136.4289 Y86.9076 E0.0216
G1 X136.3837 Y87.1246 E0.0226
G1 X136.3907 Y87.4063 E0.0288
G1 X136.4542 Y87.6313 E0.0239
G1 X136.6164 Y87.8671 E0.0292
G1 X136.8044 Y88.0023 E0.0236
G1 X137.0546 Y88.0972 E0.0273
G1 X137.4840 Y88.1732 E0.0445
G1 X137.6057 Y88.2040 E0.0128
G1 X137.7046 Y88.2428 E0.0108
G1 X137.7907 Y88.2900 E0.0100
G1 X137.8729 Y88.3509 E0.0104
G1 X137.9444 Y88.4194 E0.0101
G1 X138.0416 Y88.5464 E0.0163
G1 X138.0981 Y88.6620 E0.0131
G1 X138.1258 Y88.7671 E0.0111
G1 X138.1279 Y88.8042 E0.0038
G1 X138.1128 Y88.9109 E0.0110
G1 X138.0961 Y88.9591 E0.0052
G1 X138.0693 Y89.0097 E0.0058
G1 X138.0387 Y89.0505 E0.0052
G1 X137.9987 Y89.0882 E0.0056
G1 X137.9472 Y89.1239 E0.0064
G1 X137.8938 Y89.1497 E0.0061
G1 X137.8553 Y89.1613 E0.0041
G1 X137.7979 Y89.1663 E0.0059
G1 X137.7750 Y89.1569 E0.0025
G1 X137.4354 Y88.9061 E0.0431
G1 X137.1891 Y88.7703 E0.0287
G1 X136.9260 Y88.6987 E0.0278
G1 X136.7091 Y88.6834 E0.0222
G1 X136.4926 Y88.7029 E0.0222
G1 X136.2264 Y88.7876 E0.0285
G1 X136.0335 Y88.9082 E0.0232
G1 X135.8424 Y89.1203 E0.0291
G1 X135.7483 Y89.3319 E0.0236
G1 X135.7058 Y89.5365 E0.0213
G1 X135.7023 Y89.7492 E0.0217
G1 X135.7396 Y89.9728 E0.0231
G1 E-1.5000 F2400 ; e-retract 1.5
G1 Z0.4550 F4800 ; z-hop start
G1 X140.6126 Y89.7227
G1 Z0.2550 ; z-hop end
G1 E1.5000 F2400 ; e-engage 1.5
G4 P20
G1 X140.6243 Y89.9867 E0.0270 F1151
G1 X140.6768 Y90.2371 E0.0261
G1 X140.7330 Y90.3942 E0.0170
G1 X140.8778 Y90.6350 E0.0287
G1 X141.1080 Y90.8217 E0.0302
G1 X141.3596 Y90.9037 E0.0270
G1 X141.5948 Y90.9185 E0.0240
G1 X142.0440 Y90.8762 E0.0460
G1 X142.8555 Y90.8841 E0.0828
G1 X143.3975 Y90.8562 E0.0554
G1 X143.8452 Y90.7919 E0.0461
G1 X144.2193 Y90.6939 E0.0395
G1 X144.4646 Y90.5963 E0.0269
G1 X144.7960 Y90.4106 E0.0388
G1 X145.0137 Y90.2464 E0.0278
G1 X145.2161 Y90.0599 E0.0281
G1 X145.2769 Y89.9907 E0.0094
G1 X145.2887 Y90.1295 E0.0142
G1 X145.3593 Y90.3850 E0.0270
G1 X145.4717 Y90.6247 E0.0270
G1 X145.6276 Y90.8427 E0.0274
G1 X145.8170 Y91.0260 E0.0269
G1 X146.0344 Y91.1760 E0.0270
G1 X146.2796 Y91.2850 E0.0274
G1 X146.5359 Y91.3479 E0.0269
G1 X146.8001 Y91.3658 E0.0270
G1 X147.0633 Y91.3373 E0.0270
G1 X147.3200 Y91.2618 E0.0273
G1 X147.5572 Y91.1417 E0.0271
G1 X147.7682 Y90.9845 E0.0269
G1 X147.9520 Y90.7887 E0.0274
G1 X148.0948 Y90.5662 E0.0270
G1 X148.1426 Y90.4534 E0.0125
G1 X148.1513 Y90.4951 E0.0044
G1 X148.2663 Y90.6919 E0.0233
G1 X148.4208 Y90.8552 E0.0229
G1 X148.6737 Y91.0111 E0.0303
G1 X148.9533 Y91.0836 E0.0295
G1 X149.1773 Y91.0781 E0.0229
G1 X149.3997 Y91.0066 E0.0238
G1 X149.6277 Y90.8500 E0.0282
G1 X149.8219 Y90.6264 E0.0302
G1 X150.0698 Y90.2568 E0.0454
G1 X150.1184 Y90.1649 E0.0106
G1 X150.4302 Y90.6890 E0.0622
G1 X150.6547 Y90.9205 E0.0329
G1 X150.8842 Y91.0479 E0.0268
G1 X151.1807 Y91.1049 E0.0308
G1 X151.4041 Y91.0866 E0.0229
G1 X151.6127 Y91.0305 E0.0220
G1 X151.8567 Y90.8930 E0.0286
G1 X152.0108 Y90.7339 E0.0226
G1 X152.1192 Y90.5470 E0.0220
G1 X152.1795 Y90.3389 E0.0221
G1 X152.1960 Y90.1272 E0.0217
G1 X152.1741 Y89.9108 E0.0222
G1 X152.1153 Y89.7006 E0.0223
G1 X151.9839 Y89.4312 E0.0306
G1 X151.7699 Y89.0957 E0.0406
G1 X151.4970 Y88.6116 E0.0567
G1 X151.3174 Y88.3242 E0.0346
G1 X151.2915 Y88.2668 E0.0064
G1 X151.2845 Y88.2311 E0.0037
G1 X151.2852 Y88.2067 E0.0025
G1 X151.3080 Y88.1186 E0.0093
G1 X151.3856 Y87.9620 E0.0178
G1 X151.7153 Y87.4289 E0.0640
G1 X152.0365 Y86.8624 E0.0665
G1 X152.1054 Y86.6732 E0.0205
G1 X152.1391 Y86.4736 E0.0207
G1 X152.1216 Y86.2357 E0.0243
G1 X152.0461 Y86.0268 E0.0227
G1 X151.9334 Y85.8470 E0.0216
G1 X151.7880 Y85.6954 E0.0214
G1 X151.5836 Y85.5577 E0.0252
G1 X151.3111 Y85.4785 E0.0290
G1 X151.0696 Y85.4904 E0.0247
G1 X150.8078 Y85.5873 E0.0285
G1 X150.5651 Y85.7606 E0.0304
G1 X150.3484 Y85.9940 E0.0325
G1 X150.2173 Y86.1878 E0.0239
G1 X150.1768 Y86.2650 E0.0089
G1 X150.1712 Y86.2542 E0.0012
G1 X149.9761 Y85.9585 E0.0362
G1 X149.7746 Y85.7365 E0.0306
G1 X149.5347 Y85.5686 E0.0299
